X:1
T:Dover, 55.86
T:Aaron Williams, 1770
T:Dover, 55.86
T:Public Domain
C:Aaron Williams, 1770
Z:Public Domain
%%score ( 1 2 ) ( 3 4 )
L:1/8
M:3/2
K:Eb
V:1 treble 
V:2 treble 
V:3 bass 
V:4 bass 
V:1
 [EB]4 | [EG]2 [Ec]2 [EB]4 [Fd]4 | [Ge]8 | [Ge]4 | [Fd]2 [Ge]2 [Fd]4 (F2 E2) | [DB]8 | [EG]4 | %7
 [EA]2 [EB]2 [Ec]4 [EB]4 | [FA]2 [EG]2 [DF]4 | (D2 F2) | [Ee]2 [EA]2 [EG]4 [DF]4 | E8 |] %12
V:2
 x4 | x12 | x8 | x4 | x8 c4 | x8 | x4 | x12 | x8 | B4 | x12 | E8 |] %12
V:3
 [E,G,]4 | [E,B,]2 A,2 [G,B,]4 [F,A,]4 | [E,B,]8 | [E,B,]4 | B,2 [E,B,]2 [F,B,]4 [F,=A,]4 | %5
 [B,,B,]8 | [E,B,]4 | [C,A,]2 [E,G,]2 A,4 [G,B,]4 | [D,B,]2 [E,B,]2 [B,,B,]4 | z2 A,2 | %10
 [G,B,]2 [A,C]2 B,4 (B,2 A,2) | [E,G,]8 |] %12
V:4
 x4 | x12 | x8 | x4 | x12 | x8 | x4 | x4 A,4 x4 | x8 | B,4 | x8 B,,4 | x8 |] %12

